X: 1
T: South Wind, The
M: 3/4
L: 1/8
R: waltz
Z: Johnny Kerr
Z: Contributed 2016-03-13 19:35:50 by bee dablabla@gmail.com
K: Gmaj
dc|B3A G2|B3c d2|A4 B2|A4 dc|
B3A G2|E3D E2|G3 AGF|G2 z2 dc|
B3A G2|B3c d2|A4 B2|A4 dc|
B3A G2|E3D E2|G3 AGF|G2 z2 Bd|
g3a f2|g3f e2|d4 e2|d4 c2|
B3A G2|B3c dG|A4 B2|A2 z2 Bd|
g3a af|g3f e2|d4 e2|d4 c2|
B3A G2|Ac3 F2|G6-|G2 z2 ||
